openframe-frontend-core/src/components/icons-v2/brand-logos/figma.svg

<svg width="24" height="24" viewBox="0 0 24 24" fill="none" xmlns="http://www.w3.org/2000/svg">
<path d="M10.875 16.125H9C7.96446 16.125 7.125 16.9644 7.125 18C7.125 19.0356 7.96446 19.875 9 19.875C10.0356 19.875 10.875 19.0356 10.875 18V16.125ZM16.875 12C16.875 10.9645 16.0355 10.125 15 10.125C13.9645 10.125 13.125 10.9645 13.125 12C13.125 13.0355 13.9645 13.875 15 13.875C16.0355 13.875 16.875 13.0355 16.875 12ZM19.125 12C19.125 14.2782 17.2782 16.125 15 16.125C14.3239 16.125 13.6881 15.9578 13.125 15.6694V18C13.125 20.2782 11.2782 22.125 9 22.125C6.72184 22.125 4.875 20.2782 4.875 18C4.875 15.7218 6.72184 13.875 9 13.875H11.3291C11.041 13.312 10.875 12.6759 10.875 12C10.875 11.3241 11.041 10.688 11.3291 10.125H9C6.72183 10.125 4.875 8.27817 4.875 6C4.875 3.72183 6.72183 1.875 9 1.875H12C12.6213 1.875 13.125 2.37868 13.125 3V8.3291C13.688 8.04097 14.3241 7.875 15 7.875C17.2782 7.875 19.125 9.72183 19.125 12ZM7.125 6C7.125 7.03553 7.96447 7.875 9 7.875H10.875V4.125H9C7.96447 4.125 7.125 4.96447 7.125 6Z" fill="#888888"/>
<path d="M16.875 6C16.875 4.96446 16.0356 4.125 15 4.125H13.125V7.875H15C16.0356 7.875 16.875 7.03554 16.875 6ZM7.125 12C7.125 13.0356 7.96446 13.875 9 13.875H10.875V10.125H9C7.96446 10.125 7.125 10.9644 7.125 12ZM19.125 6C19.125 8.27816 17.2782 10.125 15 10.125H13.125V15C13.125 15.6213 12.6213 16.125 12 16.125H9C6.72184 16.125 4.875 14.2782 4.875 12C4.875 9.72177 6.72184 7.875 9 7.875H10.875V3L10.8809 2.88428C10.9388 2.31732 11.4178 1.875 12 1.875H15C17.2782 1.875 19.125 3.72184 19.125 6Z" fill="#888888"/>
</svg>

<svg xmlns="http://www.w3.org/2000/svg" width="24" height="24" fill="none" viewBox="0 0 24 24">
  <path fill="#888" d="M10.875 16.125H9A1.875 1.875 0 1 0 10.875 18v-1.875Zm6-4.125a1.875 1.875 0 1 0-3.75 0 1.875 1.875 0 0 0 3.75 0Zm2.25 0A4.125 4.125 0 0 1 15 16.125a4.1 4.1 0 0 1-1.875-.456V18A4.125 4.125 0 1 1 9 13.875h2.33a4.103 4.103 0 0 1 0-3.75H9a4.125 4.125 0 0 1 0-8.25h3c.621 0 1.125.504 1.125 1.125v5.33A4.103 4.103 0 0 1 15 7.874 4.125 4.125 0 0 1 19.125 12Zm-12-6c0 1.036.84 1.875 1.875 1.875h1.875v-3.75H9c-1.036 0-1.875.84-1.875 1.875Z"/>
  <path fill="#888" d="M16.875 6c0-1.036-.84-1.875-1.875-1.875h-1.875v3.75H15c1.036 0 1.875-.84 1.875-1.875Zm-9.75 6c0 1.036.84 1.875 1.875 1.875h1.875v-3.75H9c-1.036 0-1.875.84-1.875 1.875Zm12-6A4.125 4.125 0 0 1 15 10.125h-1.875V15c0 .621-.504 1.125-1.125 1.125H9a4.125 4.125 0 1 1 0-8.25h1.875V3l.006-.116A1.125 1.125 0 0 1 12 1.875h3A4.125 4.125 0 0 1 19.125 6Z"/>
</svg>
